packages/icons/svg/Navigation_Display_VocalSearch_48px.svg

<svg xmlns="http://www.w3.org/2000/svg" viewBox="0 0 48 48"><path d="M36.5 16a1.5 1.5 0 00-1.5 1.5V24a11 11 0 01-22 0v-6.5a1.5 1.5 0 00-3 0V24a14 14 0 0012.5 13.92V41H19a1.5 1.5 0 000 3h10a1.5 1.5 0 000-3h-3.5v-3.08A14 14 0 0038 24v-6.5a1.5 1.5 0 00-1.5-1.5z"/><path d="M24 32a8 8 0 008-8V12a8 8 0 00-16 0v12a8 8 0 008 8zm-5-20a5 5 0 0110 0v12a5 5 0 01-10 0z"/></svg>

<svg xmlns="http://www.w3.org/2000/svg" viewBox="0 0 48 48"><defs></defs><g id="Icon"><path  d="M36.5,16A1.5,1.5,0,0,0,35,17.5V24a11,11,0,0,1-22,0V17.5a1.5,1.5,0,0,0-3,0V24A14,14,0,0,0,22.5,37.92V41H19a1.5,1.5,0,0,0,0,3H29a1.5,1.5,0,0,0,0-3H25.5V37.92A14,14,0,0,0,38,24V17.5A1.5,1.5,0,0,0,36.5,16Z"/><path  d="M24,32a8,8,0,0,0,8-8V12a8,8,0,0,0-16,0V24A8,8,0,0,0,24,32ZM19,12a5,5,0,0,1,10,0V24a5,5,0,0,1-10,0Z"/></g></svg>
